resources/svg/align-right-o.svg

<svg viewBox="0 0 15 15" fill="none" xmlns="http://www.w3.org/2000/svg" fill="currentColor"><path d="M14.5 0v15m-3-11.5v3h-7v-3h7zm0 5v3H.5v-3h11z" stroke="currentColor"/></svg>

<svg width="15" height="15" viewBox="0 0 15 15" fill="none" xmlns="http://www.w3.org/2000/svg">
<path d="M14.5 0V15M11.5 3.5V6.5H4.5V3.5H11.5ZM11.5 8.5V11.5H0.5V8.5H11.5Z" stroke="black"/>
</svg>
